X:1
T:Title
%%score { 1 | ( 2 3 ) }
L:1/8
M:4/4
K:Ab
V:1 treble nm="Grand Piano"
V:2 bass 
V:3 bass 
V:1
 z4 z2[Q:1/4=100] [CA]>B | c2 [EA]2 B2 G2 | A6 B>c | [Ed]2 [EB]2 [EAc]2 [EA]2 |[M:3/4] [GB]6 | %5
[M:1/4] c>d |[M:4/4] e2 e2 [Gd]2 [Ac]2 | [FB]2 [Fd]2 [Ec]2 B2 | A2 E2 c3 B |[M:3/4] [CEA]6 | %10
[M:1/4] B>c |[M:4/4] d2 F4 A>B | c2 E4 A>B | c2 [EA]2 [EGd]2 [EAc]2 |[M:3/4] [GB]6 |[M:1/4] c>d | %16
[M:4/4] e2 e2 [Gd]2 [Ac]2 | [FB]2 [Fd]2 [Ec]2 B2 | A2 E2 c3 [DEB] |[M:3/4] [CEA]6 |] %20
V:2
 z4 z2 z z/ D/ | [A,E]2 [C,A,]2 [E,G,E]2 [E,DE]2 | [A,CE]6 E->[A,E] | B,2 G,2 A,2 C,2 | %4
[M:3/4] [E,E]6 |[M:1/4][K:treble] [A,A]2 |[M:4/4] [A,CA]2 [A,CA]2[K:bass] [E,B,]2 [F,A,]2 | %7
 [D,A,]2 [B,,G,]2 [C,A,]2 [D,F,D]2 | [E,C]2 [E,A,C]2 [E,A,E]3 [E,DE] |[M:3/4] A,,6 | %10
[M:1/4] [E,G,E]>[E,A,E] |[M:4/4] [E,B,E]2 [E,G,D]4[K:treble] [A,C]>[A,D] | %12
 [A,E]2 [A,C]4 [A,CE]>[A,DE] | [A,EA]2[K:bass] C,2 E,2 A,2 |[M:3/4] [E,E]6 | %15
[M:1/4][K:treble] [A,A]>[A,B,A] |[M:4/4] [A,CA]2 [A,CA]2[K:bass] [E,B,]2 [F,A,]2 | %17
 [D,A,]2 [B,,G,]2 [C,A,]2 [D,F,D]2 | [E,C]2 [E,A,C]2 [E,A,E]3 D, |[M:3/4] A,,6 |] %20
V:3
 z4 z2 A,2 | x8 | z4 z2 G,2 | x8 |[M:3/4] x6 |[M:1/4][K:treble] z z/ B,/ |[M:4/4] x4[K:bass] x4 | %7
 x8 | x8 |[M:3/4] x6 |[M:1/4] x2 |[M:4/4] x6[K:treble] x2 | x8 | x2[K:bass] x6 |[M:3/4] x6 | %15
[M:1/4][K:treble] x2 |[M:4/4] x4[K:bass] x4 | x8 | x8 |[M:3/4] x6 |] %20

